src/assets/img/logo.svg

<svg width="218" height="54" viewBox="0 0 218 54" fill="none" xmlns="http://www.w3.org/2000/svg">
<path d="M8.19004 45.8318L8.19341 45.8351C13.3668 50.9434 19.6734 53.5 27.0832 53.5C34.493 53.5 40.7766 50.9433 45.9027 45.8335C51.0759 40.6768 53.6663 34.3891 53.6663 27C53.6663 19.6116 51.0763 13.3474 45.9028 8.23818C40.7773 3.08118 34.4937 0.5 27.0832 0.5C19.6719 0.5 13.3648 3.0816 8.19173 8.23817C3.06551 13.348 0.5 19.6124 0.5 27C0.5 34.3876 3.06538 40.6748 8.19004 45.8318ZM39.3741 14.5307L39.374 14.5307L39.379 14.5356C42.7256 17.8252 44.4031 21.9672 44.4031 27C44.4031 32.0328 42.7255 36.2002 39.3765 39.5384C36.074 42.8305 31.9876 44.478 27.0832 44.478C22.1799 44.478 18.0689 42.8311 14.7179 39.5384C11.4176 36.2011 9.76326 32.0338 9.76326 27C9.76326 21.965 11.4183 17.8222 14.7179 14.5332C18.0698 11.192 22.1808 9.52204 27.0832 9.52204C31.9854 9.52204 36.071 11.1918 39.3741 14.5307ZM64.7853 43.4002L64.3853 43.6338L64.5877 44.0505C66.1125 47.1883 68.269 49.5602 71.0601 51.1429C73.847 52.7233 77.2363 53.5 81.2047 53.5C86.3312 53.5 90.5961 52.0862 93.9594 49.2267L93.9626 49.2239C97.3515 46.2929 99.0216 42.1551 99.0216 36.8843V1.93113V1.43113H98.5216H90.2584H89.7584V1.93113V36.8843C89.7584 39.3533 89.0063 41.2116 87.552 42.5298C86.1416 43.8039 84.0755 44.478 81.2766 44.478C79.1141 44.478 77.3319 44.0493 75.9051 43.2205C74.4825 42.3943 73.3812 41.152 72.6051 39.4684L72.3745 38.9681L71.8989 39.2459L64.7853 43.4002ZM113.245 43.4002L112.845 43.6338L113.047 44.0505C114.572 47.1883 116.729 49.5602 119.52 51.1429C122.307 52.7233 125.696 53.5 129.664 53.5C134.791 53.5 139.056 52.0862 142.419 49.2267L142.422 49.2239C145.811 46.2929 147.481 42.1551 147.481 36.8843V1.93113V1.43113H146.981H138.718H138.218V1.93113V36.8843C138.218 39.3533 137.466 41.2116 136.012 42.5298C134.601 43.8039 132.535 44.478 129.736 44.478C127.574 44.478 125.792 44.0493 124.365 43.2205C122.942 42.3943 121.841 41.152 121.065 39.4684L120.834 38.9681L120.359 39.2459L113.245 43.4002ZM172.024 45.8318L172.027 45.8351C177.201 50.9434 183.507 53.5 190.917 53.5C198.327 53.5 204.61 50.9433 209.736 45.8335C214.91 40.6768 217.5 34.3891 217.5 27C217.5 19.6116 214.91 13.3474 209.736 8.23818C204.611 3.08118 198.327 0.5 190.917 0.5C183.506 0.5 177.198 3.0816 172.025 8.23817C166.899 13.348 164.334 19.6124 164.334 27C164.334 34.3876 166.899 40.6748 172.024 45.8318ZM203.208 14.5307L203.213 14.5356C206.559 17.8252 208.237 21.9672 208.237 27C208.237 32.0328 206.559 36.2002 203.21 39.5384C199.908 42.8305 195.821 44.478 190.917 44.478C186.013 44.478 181.902 42.831 178.551 39.5382C175.251 36.2009 173.597 32.0336 173.597 27C173.597 21.965 175.252 17.8222 178.552 14.5332C181.904 11.192 186.015 9.52204 190.917 9.52204C195.819 9.52204 199.905 11.1918 203.208 14.5307Z" fill="white" stroke="black"/>
<path d="M37.1308 24.933L37.1248 24.8808C37.1137 24.8155 37.0939 24.7524 37.0658 24.6938L34.1246 19.4231C34.1246 19.4231 33.7495 18.9064 33.6604 18.9064H21.1267L17.3574 24.515L17.3128 24.5666L17.3068 24.5909C17.2749 24.6479 17.2488 24.7085 17.2288 24.7718L17.2135 24.8219C17.17 24.9824 17.1721 25.1538 17.2195 25.3129L17.2371 25.3692C17.2608 25.4359 17.2901 25.4968 17.3244 25.5511L26.4373 38.4018L26.4559 38.4313C26.5027 38.4984 26.5598 38.5579 26.6295 38.6121L26.6824 38.6488C26.7344 38.685 26.7887 38.7139 26.8676 38.746L26.9191 38.7651C27.0083 38.7904 27.0858 38.8023 27.1615 38.8023C27.238 38.8023 27.3128 38.7909 27.4135 38.762L27.4753 38.7377C27.5356 38.7139 27.5899 38.6845 27.6554 38.6395L27.6962 38.6111C27.7663 38.5558 27.8225 38.4959 27.8536 38.4488L36.9781 25.5847C37.0588 25.4649 37.1114 25.3246 37.1313 25.1764L37.1382 25.1098L37.1419 25.0571L37.1308 24.933ZM32.238 24.5909L33.5369 21.9745L34.8348 24.5909H32.238ZM31.4591 26.1413H34.5405L29.4045 33.3839L31.4591 26.1413ZM30.6969 23.8065L28.821 20.9735H32.103L30.6969 23.8065ZM24.6882 26.1413H29.6361L27.1615 34.8629L24.6882 26.1413ZM25.1788 24.5909L27.1615 21.5957L29.1441 24.5909H25.1788ZM23.7825 23.5718L22.9228 20.9735H25.5024L23.7825 23.5718ZM24.9193 33.3844L19.7829 26.1413H22.8647L24.9193 33.3844ZM21.4354 21.9926L22.2956 24.5909H19.7156L21.4354 21.9926Z" fill="white"/>
<path d="M200.799 24.933L200.793 24.8808C200.782 24.8155 200.762 24.7524 200.734 24.6938L197.793 19.4231C197.793 19.4231 197.418 18.9064 197.329 18.9064H184.795L181.026 24.515L180.981 24.5666L180.975 24.5909C180.943 24.6479 180.917 24.7085 180.897 24.7718L180.882 24.8219C180.838 24.9824 180.841 25.1538 180.888 25.3129L180.906 25.3692C180.929 25.4359 180.958 25.4968 180.993 25.5511L190.106 38.4018L190.124 38.4313C190.171 38.4984 190.228 38.5579 190.298 38.6121L190.351 38.6488C190.403 38.685 190.457 38.7139 190.536 38.746L190.588 38.7651C190.677 38.7904 190.754 38.8023 190.83 38.8023C190.906 38.8023 190.981 38.7909 191.082 38.762L191.144 38.7377C191.204 38.7139 191.258 38.6845 191.324 38.6395L191.365 38.6111C191.435 38.5558 191.491 38.4959 191.522 38.4488L200.646 25.5847C200.727 25.4649 200.78 25.3246 200.8 25.1764L200.807 25.1098L200.81 25.0571L200.799 24.933ZM195.906 24.5909L197.205 21.9745L198.503 24.5909H195.906ZM195.127 26.1413H198.209L193.073 33.3839L195.127 26.1413ZM194.365 23.8065L192.489 20.9735H195.771L194.365 23.8065ZM188.357 26.1413H193.305L190.83 34.8629L188.357 26.1413ZM188.847 24.5909L190.83 21.5957L192.812 24.5909H188.847ZM187.451 23.5718L186.591 20.9735H189.171L187.451 23.5718ZM188.588 33.3844L183.451 26.1413H186.533L188.588 33.3844ZM185.104 21.9926L185.964 24.5909H183.384L185.104 21.9926Z" fill="white"/>
</svg>

<svg viewBox="0 0 218 54" fill="none" xmlns="http://www.w3.org/2000/svg"><path d="m8.19 45.832.003.003c5.174 5.108 11.48 7.665 18.89 7.665s13.694-2.557 18.82-7.666c5.173-5.157 7.763-11.445 7.763-18.834 0-7.388-2.59-13.653-7.763-18.762C40.777 3.081 34.493.5 27.083.5 19.672.5 13.365 3.082 8.192 8.238 3.066 13.348.5 19.612.5 27s2.565 13.675 7.69 18.832zM39.374 14.53l.005.005c3.347 3.29 5.024 7.431 5.024 12.464s-1.678 9.2-5.026 12.538c-3.303 3.293-7.39 4.94-12.294 4.94-4.903 0-9.014-1.647-12.365-4.94-3.3-3.337-4.955-7.504-4.955-12.538 0-5.035 1.655-9.178 4.955-12.467 3.352-3.341 7.463-5.011 12.365-5.011s8.988 1.67 12.291 5.009zM64.785 43.4l-.4.233.203.416c1.525 3.138 3.681 5.51 6.472 7.093 2.787 1.58 6.176 2.357 10.145 2.357 5.126 0 9.391-1.414 12.754-4.273l.004-.003c3.389-2.931 5.059-7.069 5.059-12.34V1.431h-9.264v35.453c0 2.47-.752 4.328-2.206 5.646-1.41 1.274-3.477 1.948-6.275 1.948-2.163 0-3.945-.429-5.372-1.258-1.422-.826-2.524-2.068-3.3-3.752l-.23-.5-.476.278-7.114 4.154zm48.46 0-.4.233.202.416c1.525 3.138 3.682 5.51 6.473 7.093 2.787 1.58 6.176 2.357 10.144 2.357 5.127 0 9.392-1.414 12.755-4.273l.003-.003c3.389-2.931 5.059-7.069 5.059-12.34V1.431h-9.263v35.453c0 2.47-.752 4.328-2.206 5.646-1.411 1.274-3.477 1.948-6.276 1.948-2.162 0-3.944-.429-5.371-1.258-1.423-.826-2.524-2.068-3.3-3.752l-.231-.5-.475.278-7.114 4.154zm58.779 2.43.003.004c5.174 5.108 11.48 7.665 18.89 7.665s13.693-2.557 18.819-7.666C214.91 40.677 217.5 34.389 217.5 27c0-7.388-2.59-13.653-7.764-18.762C204.611 3.081 198.327.5 190.917.5c-7.411 0-13.719 2.582-18.892 7.738-5.126 5.11-7.691 11.374-7.691 18.762s2.565 13.675 7.69 18.832zm31.184-31.3.005.005c3.346 3.29 5.024 7.431 5.024 12.464s-1.678 9.2-5.027 12.538c-3.302 3.293-7.389 4.94-12.293 4.94-4.904 0-9.015-1.647-12.366-4.94-3.3-3.337-4.954-7.504-4.954-12.538 0-5.035 1.655-9.178 4.955-12.467 3.352-3.341 7.463-5.011 12.365-5.011s8.988 1.67 12.291 5.009z" fill="#fff" stroke="#000"/><path d="m37.13 24.933-.005-.052a.707.707 0 0 0-.06-.187l-2.94-5.27s-.376-.518-.465-.518H21.127l-3.77 5.609-.044.052-.006.024a.966.966 0 0 0-.078.18l-.015.05a.901.901 0 0 0 .006.492l.017.056a.912.912 0 0 0 .087.182l9.113 12.85.019.03a.827.827 0 0 0 .174.181l.052.037a.901.901 0 0 0 .186.097l.051.02c.09.024.167.036.242.036a.877.877 0 0 0 .252-.04l.062-.024a.87.87 0 0 0 .18-.099l.041-.028a.76.76 0 0 0 .158-.162l9.124-12.864a.96.96 0 0 0 .153-.409l.007-.066.004-.053-.011-.124zm-4.892-.342 1.299-2.617 1.298 2.617h-2.597zm-.779 1.55h3.082l-5.136 7.243 2.054-7.243zm-.762-2.334-1.876-2.833h3.282l-1.406 2.832zm-6.009 2.334h4.948l-2.474 8.722-2.474-8.722zm.49-1.55 1.983-2.995 1.983 2.995H25.18zm-1.396-1.02-.86-2.598h2.58l-1.72 2.599zm1.137 9.813-5.136-7.243h3.082l2.054 7.243zm-3.484-11.391.86 2.598h-2.58l1.72-2.598zm179.364 2.94-.006-.052a.707.707 0 0 0-.059-.187l-2.941-5.27s-.375-.518-.464-.518h-12.534l-3.769 5.609-.045.052-.006.024a.96.96 0 0 0-.078.18l-.015.05a.9.9 0 0 0 .006.492l.018.056a.84.84 0 0 0 .087.182l9.113 12.85.018.03a.827.827 0 0 0 .174.181l.053.037a.897.897 0 0 0 .185.097l.052.02a.87.87 0 0 0 .242.036.881.881 0 0 0 .252-.04l.062-.024a.89.89 0 0 0 .18-.099l.041-.028a.756.756 0 0 0 .157-.162l9.124-12.864a.959.959 0 0 0 .154-.409l.007-.066.003-.053-.011-.124zm-4.893-.342 1.299-2.617 1.298 2.617h-2.597zm-.779 1.55h3.082l-5.136 7.243 2.054-7.243zm-.762-2.334-1.876-2.833h3.282l-1.406 2.832zm-6.008 2.334h4.948l-2.475 8.722-2.473-8.722zm.49-1.55 1.983-2.995 1.982 2.995h-3.965zm-1.396-1.02-.86-2.598h2.58l-1.72 2.599zm1.137 9.813-5.137-7.243h3.082l2.055 7.243zm-3.484-11.391.86 2.598h-2.58l1.72-2.598z" fill="#fff"/></svg>
